!!!!SEGMENT: pl-cz--iii-753--001-004_zebrowski-marcin-jozef--vesperae-in-d-laudate-pueri.krn
!!!cenid: 17xx:2375
!!!COM: Żebrowski, Marcin Józef
!!!COM-rismid: pe30020322
!!!CDT: 1702-1770/06/29
!!!CNT: Polish
!!!OPR: Vesperae in D
!!!OTL: Laudate pueri
!!!OMV: 004
!!!PDT:
!!!AGN:
!!!SMS-siglum: PL-CZ
!!!SMS-shelfmark: III-753
!!!SMS-shelfwork: 001-004 M
!!!SMS-variant:
!!!SMS-altvar:
!!!NIFC-rismid: 300033505
!!!URL-scan: https://repozytorium.nifc.pl/islandora/object/pl-cz%3A25492/datastream/PDF/view
!!!ONB-nifc: UWAGA: części Nieszporów: 1. Dixit Dominus, 2. Confitebor, 3. Beatus vir, 4. Laudate pueri, 5. Laudate Dominum, 6. Credidi, 7. In convertendo, 8. Domine probasti me, 9. Laetatus sum, 10. Nisi Dominus, 11. Lauda Jerusalem, 12. Magnificat, 13. Quia respexit, 14. Deposuit potentes, 15. Gloria patri
!!!key: A
**kern	**fb	**kern	**dynam	**kern	**dynam	**kern	**text	**kern	**text	**kern	**text	**kern	**text	**kern	**kern	**kern
*part10	*	*part9	*part9	*part8	*part8	*part7	*part7	*part6	*part6	*part5	*part5	*part4	*part4	*part3	*part2	*part1
*staff10	*	*staff9	*	*staff8	*	*staff7	*staff7	*staff6	*staff6	*staff5	*staff5	*staff4	*staff4	*staff3	*staff2	*staff1
*group	*	*group3	*group3	*group3	*group3	*group2	*group2	*group2	*group2	*group2	*group2	*group2	*group2	*group1	*group1	*group
*I"Organo.	*	*I"Violino Secondo.	*	*I"Violino Primo.	*	*I"Baſso.	*	*I"Tenore.	*	*I"Alto.	*	*I"Canto.	*	*I"Clarino Secondo ex D.	*I"Clarino Primo ex D	*I"Baſsone.
*I'org	*	*I'vl 2	*	*I'vl 1	*	*I'B	*	*I'T	*	*I'A	*	*I'S	*	*I'clno 2 in D	*I'clno 1 in D	*I'fag
*Iorgan	*	*Ivioln	*	*Ivioln	*	*Ibass	*	*Itenor	*	*Ialto	*	*Isoprn	*	*Iclrno	*Iclrno	*Ifagot
*ICklav	*	*ICstr	*	*ICstr	*	*ICvox	*	*ICvox	*	*ICvox	*	*ICvox	*	*ICbras	*ICbras	*ICww
*clefF4	*	*clefG2	*	*clefG2	*	*clefF4	*	*clefC4	*	*clefC3	*	*clefC1	*	*clefG2	*clefG2	*clefF4
*	*	*	*	*	*	*	*	*	*	*	*	*	*	*ITrd-1c-2	*ITrd-1c-2	*
*k[f#c#g#]	*	*k[f#c#g#]	*	*k[f#c#g#]	*	*k[f#c#g#]	*	*k[f#c#g#]	*	*k[f#c#g#]	*	*k[f#c#g#]	*	*k[f#c#g#]	*k[f#c#g#]	*k[f#c#g#]
*A:	*	*A:	*	*A:	*	*A:	*	*A:	*	*A:	*	*A:	*	*A:	*A:	*A:
*M2/4	*	*M2/4	*	*M2/4	*	*M2/4	*	*M2/4	*	*M2/4	*	*M2/4	*	*M2/4	*M2/4	*M2/4
=1	=1	=1	=1	=1	=1	=1	=1	=1	=1	=1	=1	=1	=1	=1	=1	=1
*	*above	*	*	*	*	*	*	*	*	*	*	*	*	*	*	*
!	!	!	!	!	!	!	!	!	!	!	!	!	!	!	!	!LO:TX:a:i:t=Solo.
!LO:TX:a:i:t=Solo.	!	!LO:TX:a:t=18.	!	!LO:TX:a:t=18.	!	!LO:TX:aLi:t=Solo.	!	!LO:TX:a:t=6.	!	!LO:TX:a:t=6.	!	!LO:TX:a:t=6.	!	!	!	!LO:TX:a:i:t=Allo.:rj
!	!	!	!	!	!	!	!	!LO:TX:a:t=P:problem=w źródle kolejność i wysokość znaków przykluczowych - c# F# G#	!	!	!	!LO:TX:a:t=P:problem=w źródle kolejność i wysokość znaków przykluczowych - f# cc# g#	!	!	!	!
!	!	!LO:TX:b:i:t=Allo.	!	!LO:TX:b:i:t=Allegro	!	!LO:TX:a:i:t=Allo.	!	!LO:TX:b:i:t=allegro.	!	!LO:TX:b:i:t=allo.	!	!LO:TX:b:i:t=allo.	!	!	!	!
4AA/	.	0r	.	0r	.	8r	.	0r	.	0r	.	0r	.	2ryy	2ryy	4AA/
.	.	.	.	.	.	8AA/	Lau-	.	.	.	.	.	.	.	.	.
4r	.	.	.	.	.	8C#/	-da-	.	.	.	.	.	.	.	.	4r
.	.	.	.	.	.	8E\	-te	.	.	.	.	.	.	.	.	.
=2	=2	=2	=2	=2	=2	=2	=2	=2	=2	=2	=2	=2	=2	=2	=2	=2
8r	.	.	.	.	.	8.A\	pu-	.	.	.	.	.	.	2ryy	2ryy	8r
8A\L	.	.	.	.	.	.	.	.	.	.	.	.	.	.	.	8A\L
.	.	.	.	.	.	16B\	-e-	.	.	.	.	.	.	.	.	.
8G#\	X 6	.	.	.	.	4B\	-ri	.	.	.	.	.	.	.	.	8G#\
8E\J	.	.	.	.	.	.	.	.	.	.	.	.	.	.	.	8E\J
=3	=3	=3	=3	=3	=3	=3	=3	=3	=3	=3	=3	=3	=3	=3	=3	=3
!LO:TX:t=P:problem=mixed beam	!	!	!	!	!	!	!	!	!	!	!	!	!	!	!	!LO:TX:t=P:problem=mixed beam
8A\L	X 9	.	.	.	.	8.c#\	Do-	.	.	.	.	.	.	2ryy	2ryy	8A\L
8AA/	.	.	.	.	.	.	.	.	.	.	.	.	.	.	.	8AA/
.	.	.	.	.	.	16B\	-mi-	.	.	.	.	.	.	.	.	.
8C#/	X 6	.	.	.	.	4A\	-num	.	.	.	.	.	.	.	.	8C#/
8AA/J	.	.	.	.	.	.	.	.	.	.	.	.	.	.	.	8AA/J
=4	=4	=4	=4	=4	=4	=4	=4	=4	=4	=4	=4	=4	=4	=4	=4	=4
8D/L	.	.	.	.	.	8r	.	.	.	.	.	.	.	2ryy	2ryy	8D/L
8D/	.	.	.	.	.	8F#\	lau-	.	.	.	.	.	.	.	.	8D/
8D/	.	.	.	.	.	(16F#\LL	-da-	.	.	.	.	.	.	.	.	8D/
.	.	.	.	.	.	16G#\JJ)	.	.	.	.	.	.	.	.	.	.
8D/J	.	.	.	.	.	(16G#\LL	-te	.	.	.	.	.	.	.	.	8D/J
.	.	.	.	.	.	16A\JJ)	.	.	.	.	.	.	.	.	.	.
=5	=5	=5	=5	=5	=5	=5	=5	=5	=5	=5	=5	=5	=5	=5	=5	=5
8D/L	4 2	0r	.	0r	.	(8E\L	No-	1r	.	1r	.	1r	.	2ryy	2ryy	8D/L
8D/	.	.	.	.	.	8G#\J	.	.	.	.	.	.	.	.	.	8D/
8C#/	X 6	.	.	.	.	8A\)	.	.	.	.	.	.	.	.	.	8C#/
8AA/J	X 6	.	.	.	.	8F#\	-men	.	.	.	.	.	.	.	.	8AA/J
!	!	!	!	!	!	!LO:LB:g=original	!	!	!	!	!	!	!	!	!	!
=6	=6	=6	=6	=6	=6	=6	=6	=6	=6	=6	=6	=6	=6	=6	=6	=6
.	.	.	.	.	.	8qqE/	.	.	.	.	.	.	.	.	.	.
8BB/L	X 7	.	.	.	.	4.D/	Do-	.	.	.	.	.	.	2ryy	2ryy	8BB/L
8BB/J	.	.	.	.	.	.	.	.	.	.	.	.	.	.	.	8BB/
8E\L	X 7	.	.	.	.	.	.	.	.	.	.	.	.	.	.	8E/
8E\J	.	.	.	.	.	8C#/	-mi-	.	.	.	.	.	.	.	.	8E/J
=7	=7	=7	=7	=7	=7	=7	=7	=7	=7	=7	=7	=7	=7	=7	=7	=7
4AA/	.	.	.	.	.	4C#/	-ni	8r	.	8r	.	8r	.	2ryy	2ryy	4AA/
.	.	.	.	.	.	.	.	8A/	Sit	8e\	Sit	8cc#\	Sit	.	.	.
*clefC4	*	*	*	*	*	*	*	*	*	*	*	*	*	*	*	*clefC4
!LO:TX:b:i:t=Solo.	!	!	!	!	!	!	!	!	!	!	!	!	!	!	!	!LO:TX:a:i:t=Solo.
8A/L	.	.	.	.	.	4r	.	8A/	No-	8e\	No-	8cc#\	No-	.	.	8A/L
8A/J	.	.	.	.	.	.	.	8A/	-men	8e\	-men	8cc#\	-men	.	.	8A/J
=8	=8	=8	=8	=8	=8	=8	=8	=8	=8	=8	=8	=8	=8	=8	=8	=8
!	!	!	!	!	!	!LO:TX:a:t=10.	!	!	!	!	!	!	!	!	!	!
4.e\	.	.	.	.	.	0r	.	8.e\	Do-	8.g#\	Do-	8.b\	Do-	2ryy	2ryy	4.e\
.	.	.	.	.	.	.	.	16e\	-mi-	16g#\	-mi-	16b\	-mi-	.	.	.
.	.	.	.	.	.	.	.	4e\	-ni	4g#\	-ni	4b\	-ni	.	.	.
8e\	.	.	.	.	.	.	.	.	.	.	.	.	.	.	.	8e\
=9	=9	=9	=9	=9	=9	=9	=9	=9	=9	=9	=9	=9	=9	=9	=9	=9
8A/L	.	0r	.	0r	.	.	.	8A/	be-	8a\	be-	8cc#\	be-	2ryy	2ryy	8A/L
8G#/J	X 6	.	.	.	.	.	.	8G#/	-ne-	8b\	-ne-	8ee\	-ne-	.	.	8G#/J
.	.	.	.	.	.	.	.	.	.	.	.	8qqee/	.	.	.	.
4F#/	X 6/	.	.	.	.	.	.	4F#/	dic-	4a\	dic-	4dd#X\	dic-	.	.	4F#/
!LO:LB:g=original	!	!	!	!	!	!	!	!	!	!	!	!	!	!	!	!
=10	=10	=10	=10	=10	=10	=10	=10	=10	=10	=10	=10	=10	=10	=10	=10	=10
4E/	.	.	.	.	.	.	.	4E/	-tum	4g#\	-tum	4ee\	-tu(m)	2ryy	2ryy	4E/
4r	.	.	.	.	.	.	.	4r	.	4g#\	ex	4b\	ex	.	.	4r
=11	=11	=11	=11	=11	=11	=11	=11	=11	=11	=11	=11	=11	=11	=11	=11	=11
*	*	*	*	*	*	*	*	*2\right	*	*2\right	*	*2\right	*	*	*	*
!	!	!	!	!	!	!	!	!LO:TX:a:i:t=Solo:color=grey	!	!	!	!	!	!	!	!
4r	.	.	.	.	.	.	.	4r	.	2e\	hoc	2cc#\	hoc	2ryy	2ryy	4r
4A/	.	.	.	.	.	.	.	4A/	ex	.	.	.	.	.	.	4A/
=12	=12	=12	=12	=12	=12	=12	=12	=12	=12	=12	=12	=12	=12	=12	=12	=12
4d\	.	.	.	.	.	0r	.	2d\	hoc	4r	.	4r	.	2ryy	2ryy	4d\
4D/	.	.	.	.	.	.	.	.	.	4f#\	ex	4a\	ex	.	.	4D/
=13	=13	=13	=13	=13	=13	=13	=13	=13	=13	=13	=13	=13	=13	=13	=13	=13
4r	.	0r	.	0r	.	.	.	4r	.	4f#\	hoc	4cc#\	hoc	2ryy	2ryy	4r
4B\	.	.	.	.	.	.	.	4B\	ex	4r	.	4r	.	.	.	4B\
!	!	!	!	!	!	!	!	!	!	!	!	!LO:LB:g=original	!	!	!	!
=14	=14	=14	=14	=14	=14	=14	=14	=14	=14	=14	=14	=14	=14	=14	=14	=14
4.e\	.	.	.	.	.	.	.	(>4.e\	hoc	4r	.	4r	.	2ryy	2ryy	4.e\
.	.	.	.	.	.	.	.	.	.	4g#\	ex	4b\	ex	.	.	.
8d\	4 2	.	.	.	.	.	.	8d\)	.	.	.	.	.	.	.	8d\
!	!	!	!	!	!	!	!	!LO:LB:g=original	!	!LO:LB:g=original	!	!	!	!	!	!LO:LB:g=original
=15	=15	=15	=15	=15	=15	=15	=15	=15	=15	=15	=15	=15	=15	=15	=15	=15
4c#\	X 6	.	.	.	.	.	.	(4c#\	nunc	4a\	hoc	4ee\	hoc	2ryy	2ryy	4c#\
8B\L	.	.	.	.	.	.	.	8B\)	.	8a\	nunc	8dd\	nunc	.	.	8B\L
8A\J	.	.	.	.	.	.	.	8A/	et	8a\	et	8cc#\	et	.	.	8A\J
=16	=16	=16	=16	=16	=16	=16	=16	=16	=16	=16	=16	=16	=16	=16	=16	=16
8e\L	.	.	.	.	.	1r	.	(8e\L	us-	4g#\	us-	4b\	us-	2ryy	2ryy	8e\L
8d\	.	.	.	.	.	.	.	8d\J)	.	.	.	.	.	.	.	8d\
8c#\	X 6	.	.	.	.	.	.	8c#\	-que	8a\	-que	8cc#\	-que	.	.	8c#\
8f#\J	X 6	.	.	.	.	.	.	8f#\	in	8a\	in	8dd\	in	.	.	8f#\J
=17	=17	=17	=17	=17	=17	=17	=17	=17	=17	=17	=17	=17	=17	=17	=17	=17
.	.	.	.	.	.	.	.	.	.	.	.	8qqcc#/	.	.	.	.
!LO:TX:t=P:problem=mixed beam	!	!	!	!	!	!	!	!	!	!	!	!	!	!	!	!LO:TX:t=P:problem=mixed beam
8e\L	.	1r	.	1r	.	.	.	4.e\	sae-	4.g#t\	sae-	4.bT\	sae-	2ryy	2ryy	8e\L
8d\	.	.	.	.	.	.	.	.	.	.	.	.	.	.	.	8d\
8e\	.	.	.	.	.	.	.	.	.	.	.	.	.	.	.	8e\
8E/J	.	.	.	.	.	.	.	8E/	-cu-	8a\	-cu-	8a\	-cu-	.	.	8E/J
=18	=18	=18	=18	=18	=18	=18	=18	=18	=18	=18	=18	=18	=18	=18	=18	=18
8A/	.	.	.	.	.	8r	.	8A/	-lum	8a\	-lum	8a\	-lum	2ryy	2ryy	8A/
*clefF4	*	*	*	*	*	*	*	*	*	*	*	*	*	*	*	*clefF4
!LO:TX:b:i:t=tutti&colon;	!	!	!	!	!	!	!	!	!	!	!	!	!	!	!	!LO:TX:b:i:t=Tutti&colon;:rj
8AA/L	.	.	.	.	.	8AA/	a	8r	.	8r	.	8r	.	.	.	8AA/L
8C#/	.	.	.	.	.	8C#/	so-	4r	.	4r	.	4r	.	.	.	8C#/
8E/J	.	.	.	.	.	8E\	-lis	.	.	.	.	.	.	.	.	8E/J
!LO:LB:g=original	!	!	!	!	!	!	!	!	!	!	!	!	!	!	!	!
=19	=19	=19	=19	=19	=19	=19	=19	=19	=19	=19	=19	=19	=19	=19	=19	=19
4A\	.	8r	.	8r	.	4A\	or-	8r	.	8r	.	8r	.	2ryy	2ryy	4A\
.	.	8a\L|	.	8cc#\L|	.	.	.	16e\	us-	16a\	us-	16cc#\	us-	.	.	.
.	.	.	.	.	.	.	.	16e\	-que	16a\	-que	16cc#\	-que	.	.	.
4A\	.	8cc#\|	.	8ee\|	.	4A\	-tu	8e\	ad	8a\	ad	8cc#\	ad	.	.	4A\
.	.	8ee\J|	.	8aa\J|	.	.	.	8e\	oc-	8a\	oc-	8cc#\	oc-	.	.	.
=20	=20	=20	=20	=20	=20	=20	=20	=20	=20	=20	=20	=20	=20	=20	=20	=20
8r	.	4aa\	.	4ccc#\	.	8r	.	4e\	-ca-	4a\	-ca-	4cc#\	-ca-	2ryy	2ryy	8r
8GGn/L	4 2	.	.	.	.	16GGn/	us-	.	.	.	.	.	.	.	.	8GGn/L
.	.	.	.	.	.	16GG/	-que	.	.	.	.	.	.	.	.	.
8C#/	.	4aa\	.	4ccc#\	.	8C#/	ad	4e\	-sum	4a\	-sum	4cc#\	-sum	.	.	8C#/
8E/J	.	.	.	.	.	8E\	oc-	.	.	.	.	.	.	.	.	8E/J
=21	=21	=21	=21	=21	=21	=21	=21	=21	=21	=21	=21	=21	=21	=21	=21	=21
4Gn\	4 2	8r	.	8r	.	4Gn\	-ca-	8r	.	8r	.	8r	.	2ryy	2ryy	4Gn\
.	.	8a\L	.	8cc#\L|	.	.	.	8e\	lau-	8a\	lau-	8cc#\	lau-	.	.	.
4G\	.	8cc#\	.	8ee\|	.	4G\	-sum	16e\	-da-	16a\	-da-	16cc#\	-da-	.	.	4G\
.	.	.	.	.	.	.	.	16e\	-bi-	16a\	-bi-	16cc#\	-bi-	.	.	.
.	.	8ee\J	.	8aa\J|	.	.	.	8e\	-le	8a\	-le	8cc#\	-le	.	.	.
!	!	!	!	!	!	!	!	!	!	!	!	!LO:LB:g=original	!	!	!	!
=22	=22	=22	=22	=22	=22	=22	=22	=22	=22	=22	=22	=22	=22	=22	=22	=22
8r	.	4aa#X\	.	4ccc#\	.	8r	.	[2f#\	No-	2a#X\	No-	2cc#\	No-	2ryy	2ryy	8r
8F#\L	X #	.	.	.	.	8F#\	lau-	.	.	.	.	.	.	.	.	8F#\L
8F#\	.	4aa#\	.	4ccc#\	.	16F#\	-da-	.	.	.	.	.	.	.	.	8F#\
.	.	.	.	.	.	16F#\	-bi-	.	.	.	.	.	.	.	.	.
8E\J	4/ 2	.	.	.	.	8E\	-le	.	.	.	.	.	.	.	.	8E\J
!	!	!	!	!	!	!LO:LB:g=original	!	!	!	!	!	!	!	!	!	!
=23	=23	=23	=23	=23	=23	=23	=23	=23	=23	=23	=23	=23	=23	=23	=23	=23
4D\	X 6	(4ff#\	.	(4ddd\	.	4D/	No-	4f#\]	.	4b\	.	4dd\	.	2ryy	2ryy	4D\
4E\	6 n	8ee\L)	.	8ccc#\L)	.	4E\	-men	8e\L	.	4gn\	men	8cc#\L	.	.	.	4E\
.	.	8dd\J|	.	8bb\J|	.	.	.	8d\J	-men	.	.	8b\J	-men	.	.	.
=24	=24	=24	=24	=24	=24	=24	=24	=24	=24	=24	=24	=24	=24	=24	=24	=24
*	*	*	*	*2\right	*	*	*	*	*	*	*	*	*	*	*	*
!LO:TX:t=P:problem=mixed beam	!	!	!	!	!	!	!	!	!	!	!	!	!	!	!	!LO:TX:t=P:problem=mixed beam
8F#\L	X #	4.cc#t\	.	2aa#Xt\	.	4.F#\	Do-	4.c#\	Do-	4.f#\	Do-	4.a#Xt\	Do-	2ryy	2ryy	8F#\L
8E\	.	.	.	.	.	.	.	.	.	.	.	.	.	.	.	8E\
8F#\	.	.	.	.	.	.	.	.	.	.	.	.	.	.	.	8F#\
8FF#/J	.	8cc#\	.	.	.	8F#\	-mi-	8c#\	-mi-	8f#\	-mi-	8a#\	-mi-	.	.	8FF#/J
=25	=25	=25	=25	=25	=25	=25	=25	=25	=25	=25	=25	=25	=25	=25	=25	=25
8BB/L	X #	4b\	.	4bb\	.	8BB/	-ni	4B\	-ni	4f#\	-ni	4b\	-ni	2ryy	2ryy	8BB/L
8BB/	.	.	.	.	.	8BB/	ex-	.	.	.	.	.	.	.	.	8BB/
8D#X/	.	4r	.	4r	.	16D#X/	-cel-	4r	.	4r	.	4r	.	.	.	8D#X/
.	.	.	.	.	.	16D#/	-sus	.	.	.	.	.	.	.	.	.
8F#/J	.	.	.	.	.	16F#\	su-	.	.	.	.	.	.	.	.	8F#/J
!	!	!	!	!	!	!	!	!	!	!LO:TX:b:i:t=Volti	!	!LO:TX:b:i:t=Volti	!	!	!	!
.	.	.	.	.	.	16F#\	-per	.	.	.	.	.	.	.	.	.
!	!	!	!	!LO:PB:g=original	!	!	!	!LO:LB:g=original	!	!LO:PB:g=original	!	!LO:PB:g=original	!	!	!	!
!	!	!	!	!	!	!	!	!	!	!	!	!	!	!	!	!LO:LB:g=original
=26	=26	=26	=26	=26	=26	=26	=26	=26	=26	=26	=26	=26	=26	=26	=26	=26
4B\	X #	8r	.	8r	.	4B\	om-	4B\	gen-	4f#\	gen-	4dd#X\	gen-	2ryy	2ryy	4B\
.	.	8b\L	.	8dd#X\L	.	.	.	.	.	.	.	.	.	.	.	.
4B\	.	8dd#X\	.	8ff#\	.	4B\	-nes	4B\	-tes	4f#\	-tes	4dd#\	-tes	.	.	4B\
!LO:TX:b:i:t=Volti Subito	!	!	!	!	!	!	!	!	!	!	!	!	!	!	!	!
.	.	8ff#\J	.	8bb\J	.	.	.	.	.	.	.	.	.	.	.	.
!LO:PB:g=original	!	!LO:LB:g=original	!	!	!	!	!	!	!	!	!	!	!	!	!	!
=27	=27	=27	=27	=27	=27	=27	=27	=27	=27	=27	=27	=27	=27	=27	=27	=27
8r	.	4bb\	.	4ddd#X\	.	8r	.	8.B\	Do-	8.f#\	Do-	8.dd#X\	Do-	2ryy	2ryy	8r
8AA/L	4/ 2	.	.	.	.	(8AA/L	gen-	.	.	.	.	.	.	.	.	8AA/L
.	.	.	.	.	.	.	.	16B\	-mi-	16f#\	-mi-	16dd#\	-mi-	.	.	.
8D#X/	.	4bb\	.	4ddd#\	.	8D#X/J)	.	4B\	-nus	4f#\	-nus	4dd#\	-nus	.	.	8D#X/
8F#/J	.	.	.	.	.	8F#\	-tes	.	.	.	.	.	.	.	.	8F#/J
=28	=28	=28	=28	=28	=28	=28	=28	=28	=28	=28	=28	=28	=28	=28	=28	=28
4A\	4/ 2	8r	.	8r	.	8.A\	Do-	4B\	et	4f#\	et	4dd#X\	et	2ryy	2ryy	4A\
.	.	8b\L	.	8dd#X\L	.	.	.	.	.	.	.	.	.	.	.	.
.	.	.	.	.	.	16A\	-mi-	.	.	.	.	.	.	.	.	.
4A\	.	8dd#X\	.	8ff#\	.	4A\	-nus	8B\	su-	8f#\	su-	8dd#\	su-	.	.	4A\
.	.	8ff#\J	.	8bb\J	.	.	.	8B\	-per	8f#\	-per	8dd#\	-per	.	.	.
=29	=29	=29	=29	=29	=29	=29	=29	=29	=29	=29	=29	=29	=29	=29	=29	=29
8r	.	4bb#X\	.	4ddd#X\	.	8r	.	4B#X\	coe-	4g#\	coe-	4dd#X\	coe-	2ryy	2ryy	8r
8G#\L	X #	.	.	.	.	4G#\	coe-	.	.	.	.	.	.	.	.	8G#\L
8G#\	.	4bb#\	.	4ddd#\	.	.	.	4B#\	-los	4g#\	-los	4dd#\	-los	.	.	8G#\
8F#\J	4/ 2	.	.	.	.	8F#\	-los	.	.	.	.	.	.	.	.	8F#\J
!	!	!	!	!	!	!LO:LB:g=original	!	!	!	!	!	!	!	!	!	!
=30	=30	=30	=30	=30	=30	=30	=30	=30	=30	=30	=30	=30	=30	=30	=30	=30
4E\	X 6	(4ee\	.	(4gg#\	.	4E\	glo-	4c#\	glo-	4g#\	glo-	4ee\	glo-	2ryy	2ryy	4E\
4F#\	X 6/	8dd#X\L)	.	8ff#\L)	.	8F#\	-ri-	8A/	-ri-	8f#\	-ri-	8dd#X\	-ri-	.	.	4F#\
.	.	8cc#\J|	.	8ee\J|	.	8F#\	-a	8A/	-a	8e\	-a	8cc#\	-a	.	.	.
=31	=31	=31	=31	=31	=31	=31	=31	=31	=31	=31	=31	=31	=31	=31	=31	=31
!LO:TX:t=P:problem=mixed beam	!	!	!	!	!	!	!	!	!	!	!	!	!	!	!	!LO:TX:t=P:problem=mixed beam
8G#\L	X #	2b#Xt/	.	2dd#Xt\	.	4G#\	e-	4D#X/	e-	2d#Xt\	e-	2b#X\	e-	2ryy	2ryy	8G#\L
8F#\	.	.	.	.	.	.	.	.	.	.	.	.	.	.	.	8F#\
8G#\	.	.	.	.	.	4GG#/	.	4G#/	.	.	.	.	.	.	.	8G#\
8GG#/J	.	.	.	.	.	.	.	.	.	.	.	.	.	.	.	8GG#/J
=32	=32	=32	=32	=32	=32	=32	=32	=32	=32	=32	=32	=32	=32	=32	=32	=32
4C#/	.	4cc#\	.	4cc#\	.	8C#/	-jus,	4F#/	-jus	4c#/	-jus.	4cc#\	-jus.	2ryy	2ryy	4C#/
!	!	!	!	!	!	!LO:TX:a:t=Solo.	!	!	!	!	!	!	!	!	!	!
.	.	.	.	.	.	8C#/	quis	.	.	.	.	.	.	.	.	.
4r	.	4r	.	4r	.	8E\	si-	4r	.	4r	.	4r	.	.	.	4r
!	!	!	!	!	!	!	!	!	!	!	!	!	!	!	!	!LO:TX:b:i:t=Seq(ue) cito
.	.	.	.	.	.	8G#\	-cut	.	.	.	.	.	.	.	.	.
!	!	!	!	!	!	!	!	!	!	!	!	!	!	!	!	!LO:PB:g=original
=33	=33	=33	=33	=33	=33	=33	=33	=33	=33	=33	=33	=33	=33	=33	=33	=33
!	!	!LO:TX:a:t=3.	!	!LO:TX:a:t=2.	!	!	!	!LO:TX:a:t=21.	!	!LO:TX:a:t=21.	!	!LO:TX:a:t=21.	!	!	!	!
8r	.	1r	.	1r	.	8.c#\	Do-	0r	.	0r	.	0r	.	2ryy	2ryy	8r
!LO:TX:b:t=Solo	!	!	!	!	!	!	!	!	!	!	!	!	!	!	!	!LO:TX:b:i:t=Solo
8C#/L	.	.	.	.	.	.	.	.	.	.	.	.	.	.	.	8C#/L
.	.	.	.	.	.	16c#\	-mi-	.	.	.	.	.	.	.	.	.
8E/	X 6	.	.	.	.	4c#\	-nus	.	.	.	.	.	.	.	.	8E/
8C#/J	.	.	.	.	.	.	.	.	.	.	.	.	.	.	.	8C#/J
=34	=34	=34	=34	=34	=34	=34	=34	=34	=34	=34	=34	=34	=34	=34	=34	=34
8BB#X/L	X 6	.	.	.	.	4.d#X\	De-	.	.	.	.	.	.	2ryy	2ryy	8BB#X/L
8BB#/	.	.	.	.	.	.	.	.	.	.	.	.	.	.	.	8BB#/
8GG#/	7 #	.	.	.	.	.	.	.	.	.	.	.	.	.	.	8GG#/
8GG#/J	.	.	.	.	.	8F#\	-us	.	.	.	.	.	.	.	.	8GG#/J
=35	=35	=35	=35	=35	=35	=35	=35	=35	=35	=35	=35	=35	=35	=35	=35	=35
.	.	.	.	.	.	8qqG#/	.	.	.	.	.	.	.	.	.	.
8C#/L	5 4	2r	.	8r	.	4F#\	nos-	.	.	.	.	.	.	2ryy	2ryy	8C#/L
!	!	!	!	!	!LO:DY:b:t=pia.	!	!	!	!	!	!	!	!	!	!	!
8C#/	.	.	.	8cc#\L	p	.	.	.	.	.	.	.	.	.	.	8C#/
8C#/	X 3	.	.	8ee\	.	4E\	-ter	.	.	.	.	.	.	.	.	8C#/
!	!	!LO:TX:b:i:t=Volti.	!	!	!	!	!	!	!	!	!	!	!	!	!	!
8C#/J	.	.	.	8gg#\J	.	.	.	.	.	.	.	.	.	.	.	8C#/J
!	!	!LO:PB:g=original	!	!	!	!	!	!	!	!	!	!	!	!	!	!
=36	=36	=36	=36	=36	=36	=36	=36	=36	=36	=36	=36	=36	=36	=36	=36	=36
8F#\L	.	8r	.	[2ccc#\	.	4F#\	qui	.	.	.	.	.	.	2ryy	2ryy	8F#\L
!	!	!	!LO:DY:b:t=pia&colon;	!	!	!	!	!	!	!	!	!	!	!	!	!
8F#\	.	8f#/L	p	.	.	.	.	.	.	.	.	.	.	.	.	8F#\
8F#\	.	8a/	.	.	.	4F#\	in	.	.	.	.	.	.	.	.	8F#\
8F#\J	.	8cc#/J	.	.	.	.	.	.	.	.	.	.	.	.	.	8F#\J
=37	=37	=37	=37	=37	=37	=37	=37	=37	=37	=37	=37	=37	=37	=37	=37	=37
8D#X/L	6 5	8b/L	.	(8ccc#\L]	.	2D#X/	al-	0r	.	0r	.	0r	.	2ryy	2ryy	8D#X/L
8D#/	.	8b/	.	16gg#\L	.	.	.	.	.	.	.	.	.	.	.	8D#/
.	.	.	.	16ff#\JJ)	.	.	.	.	.	.	.	.	.	.	.	.
8D#/	.	8b/	.	(16ee\LL	.	.	.	.	.	.	.	.	.	.	.	8D#/
.	.	.	.	16dd\)	.	.	.	.	.	.	.	.	.	.	.	.
8D#/J	.	8b/J	.	(16cc#\	.	.	.	.	.	.	.	.	.	.	.	8D#/J
.	.	.	.	16b#X\JJ)	.	.	.	.	.	.	.	.	.	.	.	.
=38	=38	=38	=38	=38	=38	=38	=38	=38	=38	=38	=38	=38	=38	=38	=38	=38
8E\L	.	8b/L	.	[2gg#\	.	8E\L	.	.	.	.	.	.	.	2ryy	2ryy	8E\L
8E\	.	8b/	.	.	.	(16B\L	.	.	.	.	.	.	.	.	.	8E\
.	.	.	.	.	.	16A\JJ)	.	.	.	.	.	.	.	.	.	.
8E\	.	8b/	.	.	.	(16G#\LL	.	.	.	.	.	.	.	.	.	8E\
.	.	.	.	.	.	16F#\)	.	.	.	.	.	.	.	.	.	.
8E\J	.	8b/J	.	.	.	(16E\	.	.	.	.	.	.	.	.	.	8E\J
.	.	.	.	.	.	16E#X\JJ)	.	.	.	.	.	.	.	.	.	.
!LO:LB:g=original	!	!	!	!	!	!LO:LB:g=original	!	!	!	!	!	!	!	!	!	!
=39	=39	=39	=39	=39	=39	=39	=39	=39	=39	=39	=39	=39	=39	=39	=39	=39
8C#/L	6 5	8a/L	.	8gg#\L]	.	4C#/	.	.	.	.	.	.	.	2ryy	2ryy	8C#/L
8C#/	.	8a/	.	(16ff#\L	.	.	.	.	.	.	.	.	.	.	.	8C#/
.	.	.	.	16ee\JJ)	.	.	.	.	.	.	.	.	.	.	.	.
8C#/	.	8a/	.	(16dd#X\LL	.	[4c#\	.	.	.	.	.	.	.	.	.	8C#/
.	.	.	.	16cc#\)	.	.	.	.	.	.	.	.	.	.	.	.
8C#/J	.	8a/J	.	(16b\	.	.	.	.	.	.	.	.	.	.	.	8C#/J
.	.	.	.	16a\JJ)	.	.	.	.	.	.	.	.	.	.	.	.
=40	=40	=40	=40	=40	=40	=40	=40	=40	=40	=40	=40	=40	=40	=40	=40	=40
8D#X/L	X 7	8a/L	.	[2ff#\	.	8c#\L]	.	.	.	.	.	.	.	2ryy	2ryy	8D#X/L
8D#/	.	8a/	.	.	.	(16A\L	.	.	.	.	.	.	.	.	.	8D#/
.	.	.	.	.	.	16G#\JJ)	.	.	.	.	.	.	.	.	.	.
8D#/	.	8a/	.	.	.	(16F#\LL	.	.	.	.	.	.	.	.	.	8D#/
.	.	.	.	.	.	16E\)	.	.	.	.	.	.	.	.	.	.
8D#/J	.	8a/J	.	.	.	(16D#X\	.	.	.	.	.	.	.	.	.	8D#/J
.	.	.	.	.	.	16C#\JJ)	.	.	.	.	.	.	.	.	.	.
!	!	!	!	!LO:LB:g=original	!	!	!	!	!	!	!	!	!	!	!	!
=41	=41	=41	=41	=41	=41	=41	=41	=41	=41	=41	=41	=41	=41	=41	=41	=41
8BB#X/L	6 5	8g#/L	.	8ff#\L]	.	2BB#X/	.	0r	.	0r	.	0r	.	2ryy	2ryy	8BB#X/L
8BB#/	.	8g#/	.	(16ee\L	.	.	.	.	.	.	.	.	.	.	.	8BB#/
.	.	.	.	16dd#X\JJ)	.	.	.	.	.	.	.	.	.	.	.	.
8BB#/	.	8g#/	.	(16cc#\LL	.	.	.	.	.	.	.	.	.	.	.	8BB#/
.	.	.	.	16b#X\)	.	.	.	.	.	.	.	.	.	.	.	.
8BB#/J	.	8g#/J	.	(16a\	.	.	.	.	.	.	.	.	.	.	.	8BB#/J
.	.	.	.	16g#\JJ)	.	.	.	.	.	.	.	.	.	.	.	.
=42	=42	=42	=42	=42	=42	=42	=42	=42	=42	=42	=42	=42	=42	=42	=42	=42
4C#/	.	4g#/	.	8.ee\L	.	4C#/	.	.	.	.	.	.	.	2ryy	2ryy	4C#/
.	.	.	.	16ff#\K	.	.	.	.	.	.	.	.	.	.	.	.
4A\	X 6	4cc#\	.	8.ff#T\	.	4A\	tis	.	.	.	.	.	.	.	.	4A\
.	.	.	.	16gg#\Jk	.	.	.	.	.	.	.	.	.	.	.	.
=43	=43	=43	=43	=43	=43	=43	=43	=43	=43	=43	=43	=43	=43	=43	=43	=43
8G#\	6 4	(8cc#\L	.	(8ee\L	.	8.G#\	ha-	.	.	.	.	.	.	2ryy	2ryy	8G#\
4GG#/	5| #	8b#X\J)	.	8dd#X\J)	.	.	.	.	.	.	.	.	.	.	.	4GG#/
.	.	.	.	.	.	16G#\	-bi-	.	.	.	.	.	.	.	.	.
.	.	4r	.	4r	.	4G#\	-tat	.	.	.	.	.	.	.	.	.
8AA#X/	X 7	.	.	.	.	.	.	.	.	.	.	.	.	.	.	8AA#X/
=44	=44	=44	=44	=44	=44	=44	=44	=44	=44	=44	=44	=44	=44	=44	=44	=44
8BB#X/L	6 5	8r	.	[2ff#\	.	4d#X\	et	.	.	.	.	.	.	2ryy	2ryy	8BB#X/L
8BB#/	.	8g#/	.	.	.	.	.	.	.	.	.	.	.	.	.	8BB#/
8BB#/	.	[4dd#X\	.	.	.	4F#\	hu-	.	.	.	.	.	.	.	.	8BB#/
8BB#/J	.	.	.	.	.	.	.	.	.	.	.	.	.	.	.	8BB#/J
!	!	!	!	!	!	!	!	!	!	!	!	!	!	!	!	!LO:LB:g=original
=45	=45	=45	=45	=45	=45	=45	=45	=45	=45	=45	=45	=45	=45	=45	=45	=45
8C#/L	4 9	8dd#\L]	.	8ff#\L]	.	8.F#\	-mi-	0r	.	0r	.	0r	.	2ryy	2ryy	8C#/L
8C#/	.	16cc#\L	.	16ee\L	.	.	.	.	.	.	.	.	.	.	.	8C#/
.	.	16b#X\JJ	.	16dd#X\JJ	.	16D#X\	-li-	.	.	.	.	.	.	.	.	.
.	.	8qqb#/	.	.	.	.	.	.	.	.	.	.	.	.	.	.
8C#/	3 8	4cc#\	.	4ee\	.	4E\	-a	.	.	.	.	.	.	.	.	8C#/
8C#/J	.	.	.	.	.	.	.	.	.	.	.	.	.	.	.	8C#/J
=46	=46	=46	=46	=46	=46	=46	=46	=46	=46	=46	=46	=46	=46	=46	=46	=46
8E#X\L	6 5	[2bn/	.	8r	.	8.Bn\	res-	.	.	.	.	.	.	2ryy	2ryy	8E#X\L
8E#\	.	.	.	8cc#\	.	.	.	.	.	.	.	.	.	.	.	8E#\
.	.	.	.	.	.	16B\	-pi-	.	.	.	.	.	.	.	.	.
8E#\	.	.	.	[4gg#\	.	8B\	-cit	.	.	.	.	.	.	.	.	8E#\
8E#\J	.	.	.	.	.	8B\	in	.	.	.	.	.	.	.	.	8E#\J
=47	=47	=47	=47	=47	=47	=47	=47	=47	=47	=47	=47	=47	=47	=47	=47	=47
8F#\L	4 9	8b/L]	.	8gg#\L]	.	4B\	cae-	.	.	.	.	.	.	2ryy	2ryy	8F#\L
8F#\	.	16a/L	.	16ff#\L	.	.	.	.	.	.	.	.	.	.	.	8F#\
.	.	16g#/JJ	.	16ee#X\JJ	.	.	.	.	.	.	.	.	.	.	.	.
.	.	8qqg#/	.	8qqee#/	.	.	.	.	.	.	.	.	.	.	.	.
8F#\	3 8	4a/|>	.	4ff#\	.	4A\	-lo	.	.	.	.	.	.	.	.	8F#\
8F#\J	.	.	.	.	.	.	.	.	.	.	.	.	.	.	.	8F#\J
!	!	!LO:LB:g=original	!	!	!	!LO:LB:g=original	!	!	!	!	!	!	!	!	!	!
=48	=48	=48	=48	=48	=48	=48	=48	=48	=48	=48	=48	=48	=48	=48	=48	=48
8AA#X/L	6 5	8r	.	[2een\	.	4c#\	et	.	.	.	.	.	.	2ryy	2ryy	8AA#X/L
8AA#/	.	8f#/	.	.	.	.	.	.	.	.	.	.	.	.	.	8AA#/
8AA#/	.	[4cc#\	.	.	.	4E\	hu-	.	.	.	.	.	.	.	.	8AA#/
8AA#/J	.	.	.	.	.	.	.	.	.	.	.	.	.	.	.	8AA#/J
=49	=49	=49	=49	=49	=49	=49	=49	=49	=49	=49	=49	=49	=49	=49	=49	=49
8BB/L	4 9	8cc#\L]	.	8ee\L]	.	8.E\	-mi-	0r	.	0r	.	0r	.	2ryy	2ryy	8BB/L
8BB/	.	16b\L	.	16dd#X\L	.	.	.	.	.	.	.	.	.	.	.	8BB/
.	.	16a#X\JJ	.	16cc#\JJ	.	16C#/	-li-	.	.	.	.	.	.	.	.	.
8BB/	# 8	4b\	.	4dd#X\	.	4D#X/	-a	.	.	.	.	.	.	.	.	8BB/
8BB/J	.	.	.	.	.	.	.	.	.	.	.	.	.	.	.	8BB/J
=50	=50	=50	=50	=50	=50	=50	=50	=50	=50	=50	=50	=50	=50	=50	=50	=50
8D#X/L	6 5	[2an/	.	8r	.	8.A\	res-	.	.	.	.	.	.	2ryy	2ryy	8D#X/L
8D#/	.	.	.	8b/	.	.	.	.	.	.	.	.	.	.	.	8D#/
.	.	.	.	.	.	16A\	-pi-	.	.	.	.	.	.	.	.	.
8D#/	.	.	.	[4ff#\	.	8A\	-cit	.	.	.	.	.	.	.	.	8D#/
8D#/J	.	.	.	.	.	8A\	in	.	.	.	.	.	.	.	.	8D#/J
=51	=51	=51	=51	=51	=51	=51	=51	=51	=51	=51	=51	=51	=51	=51	=51	=51
.	.	.	.	.	.	8qqB/	.	.	.	.	.	.	.	.	.	.
8E\L	4 9	8a/L]	.	8ff#\L]	.	4A\	cae-	.	.	.	.	.	.	2ryy	2ryy	8E\L
8E\	.	16g#/L	.	16ee\L	.	.	.	.	.	.	.	.	.	.	.	8E\
.	.	16f#/JJ	.	16dd#X\JJ	.	.	.	.	.	.	.	.	.	.	.	.
.	.	8qqf#/	.	.	.	.	.	.	.	.	.	.	.	.	.	.
8E\	3 8	4g#/	.	4ee\	.	4G#\	-lo	.	.	.	.	.	.	.	.	8E\
8E\J	.	.	.	.	.	.	.	.	.	.	.	.	.	.	.	8E\J
!LO:LB:g=original	!	!	!	!	!	!	!	!	!	!	!	!	!	!	!	!
=52	=52	=52	=52	=52	=52	=52	=52	=52	=52	=52	=52	=52	=52	=52	=52	=52
8GG#/L	6 5	8r	.	[2ddn\	.	(16B\LL	et	.	.	.	.	.	.	2ryy	2ryy	8GG#/L
.	.	.	.	.	.	16A\	.	.	.	.	.	.	.	.	.	.
8GG#/	.	8e/	.	.	.	16G#\	.	.	.	.	.	.	.	.	.	8GG#/
.	.	.	.	.	.	16F#\JJ)	.	.	.	.	.	.	.	.	.	.
8GG#/	.	[4b/	.	.	.	8E\	.	.	.	.	.	.	.	.	.	8GG#/
8GG#/J	.	.	.	.	.	8Dn/	in	.	.	.	.	.	.	.	.	8GG#/J
!	!	!	!	!LO:LB:g=original	!	!	!	!	!	!	!	!	!	!	!	!
=53	=53	=53	=53	=53	=53	=53	=53	=53	=53	=53	=53	=53	=53	=53	=53	=53
.	.	.	.	.	.	8qqE/	.	.	.	.	.	.	.	.	.	.
4AA/	4 9	8b/L]	.	8dd\L]	.	8D/	ter-	2r	.	2r	.	2r	.	2ryy	2ryy	4AA/
.	3 8	16a/L	.	16cc#\L	.	8C#/	-ra.	.	.	.	.	.	.	.	.	.
.	.	16g#/JJ	.	16b\JJ	.	.	.	.	.	.	.	.	.	.	.	.
!	!	!	!LO:DY:a:t=for	!	!LO:DY:a:t=for	!	!	!	!	!	!	!	!	!	!	!
4r	.	16a\LL	f	16cc#\LL	f	4r	.	.	.	.	.	.	.	.	.	4r
.	.	16a\	.	16a\	.	.	.	.	.	.	.	.	.	.	.	.
.	.	16cc#\	.	16cc#\	.	.	.	.	.	.	.	.	.	.	.	.
.	.	16ee\JJ	.	16ee\JJ	.	.	.	.	.	.	.	.	.	.	.	.
=54	=54	=54	=54	=54	=54	=54	=54	=54	=54	=54	=54	=54	=54	=54	=54	=54
!LO:TX:b:t=Tutti	!	!	!	!	!	!	!	!	!	!	!	!	!	!	!	!LO:TX:b:i:t=Tutti
8.A\L	.	8.aa\L	.	8.aa\L	.	8.A\	sus-	8.A/	Sus-	8.a\	Sus-	8.aa\	Sus-	2ryy	2ryy	8.A\L
16A\K	.	16aa\K	.	16aa\K	.	16A\	-ci-	16A/	-ci-	16a\	-ci-	16aa\	-ci-	.	.	16A\K
8A\	.	8aa\	.	8aa\	.	8A\	-tans	8A/	-tans	8a\	-tans	8aa\	-tans	.	.	8A\
8E\J	.	8ee\J	.	8ee\J	.	8E\	a	8e\	a	8e\	a	8ee\	a	.	.	8E\J
=55	=55	=55	=55	=55	=55	=55	=55	=55	=55	=55	=55	=55	=55	=55	=55	=55
8C#/L	X 6	8cc#\L	.	8cc#\L	.	8C#/	ter-	8c#\	ter-	8c#/	ter-	8cc#\	ter-	2ryy	2ryy	8C#/L
8AA/|	.	8a\|	.	8a\|	.	8AA/	-ra	8A\	-ra	8A/	-ra	8a\	-ra	.	.	8AA/|
!	!	!	!	!	!	!LO:LB:g=original	!	!	!	!	!	!	!	!	!	!
*	*	*	*	*	*	*	*ij	*	*ij	*	*ij	*	*ij	*	*	*
8C#/|	.	8cc#\|	.	8cc#\|	.	8C#/	ter-	8c#\	ter-	8c#/	ter-	8cc#\	ter-	.	.	8C#/|
8E/J|	.	8ee\J|	.	8ee\J|	.	8E\	-ra	8e\	-ra	8e\	-ra	8ee\	-ra	.	.	8E/J|
*	*	*	*	*	*	*	*Xij	*	*Xij	*	*Xij	*	*Xij	*	*	*
!	!	!	!	!	!	!	!	!	!	!LO:LB:g=original	!	!	!	!	!	!
=56	=56	=56	=56	=56	=56	=56	=56	=56	=56	=56	=56	=56	=56	=56	=56	=56
8.A\L	.	8.aa\L	.	8.aa\L	.	8.A\	i-	8.A/	i-	8.a\	i-	8.aa\	i-	2ryy	2ryy	8.A\L
16A\Jk	.	16aa\Jk	.	16aa\Jk	.	16A\	-no-	16A/	-no-	16a\	-no-	16aa\	-no-	.	.	16A\Jk
4A\	.	4aa\	.	4aa\	.	4A\	-pem	4A/	-pem	4a\	-pem	4aa\	-pem	.	.	4A\
!	!	!	!	!	!	!	!	!	!	!	!	!LO:LB:g=original	!	!	!	!
!	!	!	!	!	!	!	!	!LO:LB:g=original	!	!	!	!	!	!	!	!LO:LB:g=original
=57	=57	=57	=57	=57	=57	=57	=57	=57	=57	=57	=57	=57	=57	=57	=57	=57
!LO:TX:a:t=1.	!	!	!	!	!	!LO:TX:a:t=1.	!	!LO:TX:a:t=1.	!	!	!	!	!	!	!	!
2r	.	8cc#\L	.	8aa\L	.	2r	.	2r	.	8a\	et	8cc#\	et	2ryy	2ryy	2r
.	.	8cc#\J	.	8aa\J	.	.	.	.	.	8a\	de	8cc#\	de	.	.	.
.	.	8cc#\L	.	8aa\L	.	.	.	.	.	8a\	ster-	8cc#\	ster-	.	.	.
.	.	16b\L	.	16gg#\L	.	.	.	.	.	16g#\	-co-	16b\	-co-	.	.	.
.	.	16cc#\JJ	.	16aa\JJ	.	.	.	.	.	16a\	-re	16cc#\	-re	.	.	.
=58	=58	=58	=58	=58	=58	=58	=58	=58	=58	=58	=58	=58	=58	=58	=58	=58
8A\L	4/ 2	8.dd#X\L	.	8.ff#\L	.	8A\	et	8B\	et	8.f#\	e-	8.dd#X\	e-	2ryy	2ryy	8A\L
8A\J	.	.	.	.	.	8A\	de	8B\	de	.	.	.	.	.	.	8A\J
.	.	16dd#\Jk	.	16ff#\Jk	.	.	.	.	.	16f#\	-ri-	16dd#\	-ri-	.	.	.
8A\L	.	4dd#\	.	4ff#\	.	8A\	ster-	8B\	ster-	4f#\	-gens	4dd#\	-gens	.	.	8A\L
16G#\L	.	.	.	.	.	16G#\	-co-	16B\	-co-	.	.	.	.	.	.	16G#\L
16A\JJ	.	.	.	.	.	16A\	-re	16B\	-re	.	.	.	.	.	.	16A\JJ
=59	=59	=59	=59	=59	=59	=59	=59	=59	=59	=59	=59	=59	=59	=59	=59	=59
*	*	*	*	*	*	*	*	*	*	*	*ij	*	*ij	*	*	*
!LO:TX:t=P:problem=mixed beam	!	!	!	!	!	!	!	!	!	!	!	!	!	!	!	!LO:TX:t=P:problem=mixed beam
8G#\L	X 6	8.ee\L	.	8gg#\L	.	16G#\	e-	16B\	e-	16g#\	e-	16ee\	e-	2ryy	2ryy	8G#\L
.	.	.	.	.	.	16G#\	-ri-	16B\	-ri-	16f#\	-ri-	16ee\	-ri-	.	.	.
8A\	6 5	.	.	8ff#\J	.	8A\	-gens	8c#\	-gens	8f#\	-gens	8ee\	-gens	.	.	8A\
*	*	*	*	*	*	*	*	*	*	*	*Xij	*	*Xij	*	*	*
.	.	16cc#\Jk	.	.	.	.	.	.	.	.	.	.	.	.	.	.
8B\	X #	4dd#Xt\	.	4ff#T\	.	8.B\	pau-	8.B\	pau-	8.f#T\	pau-	8.dd#X\	pau-	.	.	8B\
8BB/J	.	.	.	.	.	.	.	.	.	.	.	.	.	.	.	8BB/J
.	.	.	.	.	.	16BB/	-pe-	16B\	-pe-	16f#\	-pe-	16dd#\	-pe-	.	.	.
=60	=60	=60	=60	=60	=60	=60	=60	=60	=60	=60	=60	=60	=60	=60	=60	=60
4E\	.	4ee\	.	4ee\	.	4E\	-rem.	4B\	-rem	4g#\	-rem.	8ee\	-re(m)	2ryy	2ryy	4E\
!	!	!	!	!	!	!	!	!	!	!	!	!LO:TX:a:i:t=Solo.	!	!	!	!
.	.	.	.	.	.	.	.	.	.	.	.	8e/	ut	.	.	.
4r	.	4r	.	4r	.	4r	.	4r	.	4r	.	8g#/	co-	.	.	4r
.	.	.	.	.	.	.	.	.	.	.	.	16b\	-lo-	.	.	.
.	.	.	.	.	.	.	.	.	.	.	.	16b\	-cet	.	.	.
!	!	!LO:LB:g=original	!	!	!	!	!	!	!	!	!	!	!	!	!	!
=61	=61	=61	=61	=61	=61	=61	=61	=61	=61	=61	=61	=61	=61	=61	=61	=61
!LO:TX:b:i:t=Solo.	!	!	!	!	!	!LO:TX:a:t=27.	!	!LO:TX:a:t=27.	!	!LO:TX:a:t=3.	!	!	!	!	!	!
8r	.	4r	.	4r	.	0r	.	0r	.	1r	.	4ee\	e-	2ryy	2ryy	8r
!	!	!	!	!	!	!	!	!	!	!	!	!	!	!	!	!LO:TX:a:i:t=Solo
8E\L	.	.	.	.	.	.	.	.	.	.	.	.	.	.	.	8E\L
8F#\	X 7	8r	.	8r	.	.	.	.	.	.	.	4ee\	-um	.	.	8F#\
!	!	!	!LO:DY:b:t=pia	!	!LO:DY:b:t=pia	!	!	!	!	!	!	!	!	!	!	!
8G#\J	X 6	8ee\	p	8gg#\	p	.	.	.	.	.	.	.	.	.	.	8G#\J
=62	=62	=62	=62	=62	=62	=62	=62	=62	=62	=62	=62	=62	=62	=62	=62	=62
8A\L	6 5	8ee\L	.	8ff#\L	.	.	.	.	.	.	.	4.ff#\	cu(m)	2ryy	2ryy	8A\L
8A\	.	8ee\	.	8ff#\	.	.	.	.	.	.	.	.	.	.	.	8A\
8B\	X #	8dd#X\	.	8ff#\	.	.	.	.	.	.	.	.	.	.	.	8B\
8B\J	X 7	8dd#\J	.	[8ff#\J	.	.	.	.	.	.	.	8a\	prin-	.	.	8B\J
=63	=63	=63	=63	=63	=63	=63	=63	=63	=63	=63	=63	=63	=63	=63	=63	=63
*	*	*2\right	*	*	*	*	*	*	*	*	*	*	*	*	*	*
8E\L	9 4	2b\	.	8ff#\L]	.	.	.	.	.	2r	.	8.a\	-ci-	2ryy	2ryy	8E\L
8E\J	.	.	.	8dd#X\J	.	.	.	.	.	.	.	.	.	.	.	8E\J
.	.	.	.	.	.	.	.	.	.	.	.	16g#/	-pi-	.	.	.
.	.	.	.	8qqdd#/	.	.	.	.	.	.	.	.	.	.	.	.
16E\LL	8 3	.	.	4ee\	.	.	.	.	.	.	.	4g#/	-bus	.	.	16E\LL
16D\	.	.	.	.	.	.	.	.	.	.	.	.	.	.	.	16D\
16C#\	.	.	.	.	.	.	.	.	.	.	.	.	.	.	.	16C#\
16BB\JJ	.	.	.	.	.	.	.	.	.	.	.	.	.	.	.	16BB\JJ
=64	=64	=64	=64	=64	=64	=64	=64	=64	=64	=64	=64	=64	=64	=64	=64	=64
!	!	!LO:TX:a:t=1.	!	!LO:TX:a:t=1.	!	!	!	!	!	!LO:TX:a:i:t=Solo.	!	!LO:TX:a:t=24.	!	!	!	!
4AA/	.	2r	.	2r	.	.	.	.	.	8r	.	0r	.	2ryy	2ryy	4AA/
.	.	.	.	.	.	.	.	.	.	(8A/L	cum	.	.	.	.	.
4r	.	.	.	.	.	.	.	.	.	8c#/J)	.	.	.	.	.	4r
.	.	.	.	.	.	.	.	.	.	8e\	prin	.	.	.	.	.
!LO:LB:g=original	!	!	!	!	!	!	!	!	!	!	!	!	!	!	!	!
=65	=65	=65	=65	=65	=65	=65	=65	=65	=65	=65	=65	=65	=65	=65	=65	=65
8r	.	4r	.	4r	.	0r	.	0r	.	8.a\	ci-	.	.	2ryy	2ryy	8r
8AA/L	.	.	.	.	.	.	.	.	.	.	.	.	.	.	.	8AA/L
.	.	.	.	.	.	.	.	.	.	16a\	-pi-	.	.	.	.	.
8BB/	X 7	8r	.	8r	.	.	.	.	.	4a\	-bus	.	.	.	.	8BB/
8C#/J	X 6	8a/	.	8cc#\	.	.	.	.	.	.	.	.	.	.	.	8C#/J
!	!	!	!	!	!	!	!	!	!	!LO:LB:g=original	!	!	!	!	!	!
=66	=66	=66	=66	=66	=66	=66	=66	=66	=66	=66	=66	=66	=66	=66	=66	=66
8D\L	6 5	8b/L	.	8b/L	.	.	.	.	.	4.b\	po-	.	.	2ryy	2ryy	8D\L
8D\	.	8b/	.	8b/	.	.	.	.	.	.	.	.	.	.	.	8D\
8E\	X 7	8a/	.	8b/	.	.	.	.	.	.	.	.	.	.	.	8E\
8E\J	.	8a/J	.	[8b/J	.	.	.	.	.	16d\	-pu-	.	.	.	.	8E\J
.	.	.	.	.	.	.	.	.	.	16d\	-li	.	.	.	.	.
=67	=67	=67	=67	=67	=67	=67	=67	=67	=67	=67	=67	=67	=67	=67	=67	=67
8AA/L	9 4	2e/	.	8b/L]	.	.	.	.	.	4d\	su-	.	.	2ryy	2ryy	8AA/L
8AA/	.	.	.	8g#/J	.	.	.	.	.	.	.	.	.	.	.	8AA/
.	.	.	.	8qqg#/	.	.	.	.	.	.	.	.	.	.	.	.
8AA/	8 3	.	.	4a/	.	.	.	.	.	4c#/	-i	.	.	.	.	8AA/
8BB/J	.	.	.	.	.	.	.	.	.	.	.	.	.	.	.	8BB/J
!	!	!	!	!LO:LB:g=original	!	!	!	!	!	!	!	!	!	!	!	!LO:LB:g=original
=68	=68	=68	=68	=68	=68	=68	=68	=68	=68	=68	=68	=68	=68	=68	=68	=68
!	!	!LO:TX:a:t=1.	!	!LO:TX:a:t=1.	!	!	!	!	!	!	!	!	!	!	!	!
8C#/L	X 6	2r	.	2r	.	.	.	.	.	8r	.	0r	.	2ryy	2ryy	8C#/L
8C#/	.	.	.	.	.	.	.	.	.	8A/	qui	.	.	.	.	8C#/
8C#/	.	.	.	.	.	.	.	.	.	8c#/	ha-	.	.	.	.	8C#/
8C#/J	.	.	.	.	.	.	.	.	.	8e\	-bi-	.	.	.	.	8C#/J
=69	=69	=69	=69	=69	=69	=69	=69	=69	=69	=69	=69	=69	=69	=69	=69	=69
8C#/L	6 5-	8e/L	.	8r	.	0r	.	0r	.	4gn\	-ta-	.	.	2ryy	2ryy	8C#/L
8C#/	.	8e/	.	8a\L	.	.	.	.	.	.	.	.	.	.	.	8C#/
8C#/	.	8e/	.	8cc#\	.	.	.	.	.	4g\	-re	.	.	.	.	8C#/
8C#/J	.	8e/J	.	8ee\J	.	.	.	.	.	.	.	.	.	.	.	8C#/J
=70	=70	=70	=70	=70	=70	=70	=70	=70	=70	=70	=70	=70	=70	=70	=70	=70
!	!	!	!	!LO:TX:t=P:problem=mixed beam	!	!	!	!	!	!	!	!	!	!	!	!
8C#/L	7 5-	8e/L	.	8ggn\L	.	.	.	.	.	4.b\	fa-	.	.	2ryy	2ryy	8C#/L
8C#/	.	8e/	.	8gg\	.	.	.	.	.	.	.	.	.	.	.	8C#/
8C#/	.	8e/	.	8gg\	.	.	.	.	.	.	.	.	.	.	.	8C#/
8C#/J	6 5	8e/J	.	8a/J	.	.	.	.	.	16a\LL	-cit	.	.	.	.	8C#/J
.	.	.	.	.	.	.	.	.	.	16gn\JJ	.	.	.	.	.	.
=71	=71	=71	=71	=71	=71	=71	=71	=71	=71	=71	=71	=71	=71	=71	=71	=71
8D\L	.	8f#/L	.	8a/L	.	.	.	.	.	8.f#\	ste-	.	.	2ryy	2ryy	8D/L
8D\J	.	8f#/	.	8a/	.	.	.	.	.	.	.	.	.	.	.	8D/J
.	.	.	.	.	.	.	.	.	.	16f#\	-ri-	.	.	.	.	.
16D\LL	.	8f#/	.	8a/	.	.	.	.	.	4f#\	-lem	.	.	.	.	16D/LL
16E\	.	.	.	.	.	.	.	.	.	.	.	.	.	.	.	16E/
16F#\	.	8f#/J	.	8a/J	.	.	.	.	.	.	.	.	.	.	.	16F#/
16E\JJ	.	.	.	.	.	.	.	.	.	.	.	.	.	.	.	16E/JJ
=72	=72	=72	=72	=72	=72	=72	=72	=72	=72	=72	=72	=72	=72	=72	=72	=72
!	!	!	!	!LO:TX:a:t=1.	!	!	!	!	!	!	!	!	!	!	!	!
8D#X/L	X 6	2r	.	2r	.	.	.	.	.	8r	.	0r	.	2ryy	2ryy	8D#X/L
8D#/	.	.	.	.	.	.	.	.	.	8B/	in	.	.	.	.	8D#/
8D#/	.	.	.	.	.	.	.	.	.	8d#X\	do-	.	.	.	.	8D#/
8D#/J	.	.	.	.	.	.	.	.	.	8f#\	-mo	.	.	.	.	8D#/J
=73	=73	=73	=73	=73	=73	=73	=73	=73	=73	=73	=73	=73	=73	=73	=73	=73
8D#X/L	6 5	8f#/L	.	8r	.	0r	.	0r	.	4a\	Ma-	.	.	2ryy	2ryy	8D/L
8D#/	.	8f#/	.	8b\L	.	.	.	.	.	.	.	.	.	.	.	8D/
8D#/	.	8f#/	.	8dd#X\	.	.	.	.	.	4a\	-tre(m)	.	.	.	.	8D/
8D#/J	.	8f#/J	.	8ff#\J	.	.	.	.	.	.	.	.	.	.	.	8D/J
=74	=74	=74	=74	=74	=74	=74	=74	=74	=74	=74	=74	=74	=74	=74	=74	=74
!	!	!	!	!LO:TX:t=P:problem=mixed beam	!	!	!	!	!	!	!	!	!	!	!	!
8D#X/L	7 5	8f#/L	.	8aa\L	.	.	.	.	.	4.cc#\	fi-	.	.	2ryy	2ryy	8D/L
8D#/	.	8f#/	.	8aa\	.	.	.	.	.	.	.	.	.	.	.	8D/
8D#/	.	8f#/	.	8aa\	.	.	.	.	.	.	.	.	.	.	.	8D/
8D#/J	6 5	8f#/J	.	8b/J	.	.	.	.	.	16b\LL	-li-	.	.	.	.	8D/J
.	.	.	.	.	.	.	.	.	.	16a\JJ	.	.	.	.	.	.
=75	=75	=75	=75	=75	=75	=75	=75	=75	=75	=75	=75	=75	=75	=75	=75	=75
!LO:TX:t=P:problem=mixed beam	!	!	!	!	!	!	!	!	!	!	!	!	!	!	!	!LO:TX:t=P:problem=mixed beam
8E\L	X 4	8e/L	.	8b/L	.	.	.	.	.	4a\	-o-	.	.	2ryy	2ryy	8E\L
8EE/	.	8e/	.	8b/	.	.	.	.	.	.	.	.	.	.	.	8EE/
8E\	X 3	8e/	.	8b/	.	.	.	.	.	8g#\	-ru(m)	.	.	.	.	8E\
8E\J	.	8e/J	.	8b/J	.	.	.	.	.	8a\	lae-	.	.	.	.	8E\J
!LO:LB:g=original	!	!	!	!	!	!	!	!	!	!LO:LB:g=original	!	!	!	!	!	!
=76	=76	=76	=76	=76	=76	=76	=76	=76	=76	=76	=76	=76	=76	=76	=76	=76
4E\	.	4e/	.	4b/	.	.	.	.	.	16g#\LL	.	0r	.	2ryy	2ryy	4E\
.	.	.	.	.	.	.	.	.	.	16b\J	.	.	.	.	.	.
.	.	.	.	.	.	.	.	.	.	[8c#\J	.	.	.	.	.	.
4r	.	4r	.	4r	.	.	.	.	.	16c#\LL]	.	.	.	.	.	4r
.	.	.	.	.	.	.	.	.	.	16e\	.	.	.	.	.	.
.	.	.	.	.	.	.	.	.	.	16f#\	.	.	.	.	.	.
.	.	.	.	.	.	.	.	.	.	16g#\JJ	.	.	.	.	.	.
!	!	!LO:LB:g=original	!	!	!	!	!	!	!	!	!	!	!	!	!	!
=77	=77	=77	=77	=77	=77	=77	=77	=77	=77	=77	=77	=77	=77	=77	=77	=77
4r	.	4r	.	4r	.	0r	.	0r	.	(16g#\LL	.	.	.	2ryy	2ryy	4r
.	.	.	.	.	.	.	.	.	.	16a\	.	.	.	.	.	.
.	.	.	.	.	.	.	.	.	.	16b\)	.	.	.	.	.	.
.	.	.	.	.	.	.	.	.	.	16cc#\JJ	.	.	.	.	.	.
8r	.	8r	.	8r	.	.	.	.	.	(16b\LL	.	.	.	.	.	8r
.	.	.	.	.	.	.	.	.	.	16cc#\	.	.	.	.	.	.
8E\	X 7	8dd\	.	8bb\	.	.	.	.	.	16dd\	.	.	.	.	.	8E\
.	.	.	.	.	.	.	.	.	.	16ee\JJ)	.	.	.	.	.	.
!	!	!	!	!	!	!	!	!	!	!	!	!	!	!	!	!LO:LB:g=original
=78	=78	=78	=78	=78	=78	=78	=78	=78	=78	=78	=78	=78	=78	=78	=78	=78
8E\L	6 4	8cc#\L	.	8aa\L	.	.	.	.	.	8cc#\	-tan-	.	.	2ryy	2ryy	8E\L
8E\J	5 3	8b\J	.	8gg#\J	.	.	.	.	.	4b\	-tem	.	.	.	.	8E\J
4E\	.	4r	.	4r	.	.	.	.	.	.	.	.	.	.	.	4E\
.	.	.	.	.	.	.	.	.	.	8a\	lae-	.	.	.	.	.
=79	=79	=79	=79	=79	=79	=79	=79	=79	=79	=79	=79	=79	=79	=79	=79	=79
4E\	.	4g#/	.	4b/	.	.	.	.	.	16g#\LL	.	.	.	2ryy	2ryy	4E\
.	.	.	.	.	.	.	.	.	.	16b\J	.	.	.	.	.	.
.	.	.	.	.	.	.	.	.	.	[8e\J	.	.	.	.	.	.
4r	.	4r	.	4r	.	.	.	.	.	16e\LL]	.	.	.	.	.	4r
.	.	.	.	.	.	.	.	.	.	16f#\	.	.	.	.	.	.
.	.	.	.	.	.	.	.	.	.	16g#\	.	.	.	.	.	.
.	.	.	.	.	.	.	.	.	.	16a\JJ	.	.	.	.	.	.
=80	=80	=80	=80	=80	=80	=80	=80	=80	=80	=80	=80	=80	=80	=80	=80	=80
4r	.	4r	.	4r	.	.	.	.	.	(16g#\LL	.	0r	.	2ryy	2ryy	4r
.	.	.	.	.	.	.	.	.	.	16a\	.	.	.	.	.	.
.	.	.	.	.	.	.	.	.	.	16b\	.	.	.	.	.	.
.	.	.	.	.	.	.	.	.	.	16cc#\JJ)	.	.	.	.	.	.
8r	.	8r	.	8r	.	.	.	.	.	8b\L	.	.	.	.	.	8r
8E\	X 7	8b/	.	8dd\	.	.	.	.	.	8d\J	.	.	.	.	.	8E\
=81	=81	=81	=81	=81	=81	=81	=81	=81	=81	=81	=81	=81	=81	=81	=81	=81
.	.	.	.	8qqee/	.	.	.	.	.	.	.	.	.	.	.	.
!LO:TX:t=P:problem=mixed beam	!	!	!	!	!	!	!	!	!	!	!	!	!	!	!	!LO:TX:t=P:problem=mixed beam
8AA/L	9 4	8b/L	.	8dd\L	.	0r	.	0r	.	8d\	-tan-	.	.	2ryy	2ryy	8AA/L
8A\J	8 3	8a/J	.	8cc#\J	.	.	.	.	.	8c#/	-tem	.	.	.	.	8A\J
4AA/	.	16r	.	16r	.	.	.	.	.	4r	.	.	.	.	.	4AA/
.	.	16a\LL	.	16a\LL	.	.	.	.	.	.	.	.	.	.	.	.
.	.	16cc#\	.	16cc#\	.	.	.	.	.	.	.	.	.	.	.	.
.	.	16ee\JJ	.	16ee\JJ	.	.	.	.	.	.	.	.	.	.	.	.
=82	=82	=82	=82	=82	=82	=82	=82	=82	=82	=82	=82	=82	=82	=82	=82	=82
8r	.	8aa\L	.	8aa\L|	.	.	.	.	.	8r	.	.	.	2ryy	2ryy	8r
8A\L	X 6	8cc#\	.	(8ff#\	.	.	.	.	.	8cc#\	Ma-	.	.	.	.	8A\L
!	!	!	!	!	!	!	!	!	!	!LO:LB:g=original	!	!	!	!	!	!
8G#\	X 6	8b\	.	8ee\	.	.	.	.	.	8b\	-trem	.	.	.	.	8G#\
8F#\J	X 6/	8a\J	.	8dd#X\J)	.	.	.	.	.	16a\	fi-	.	.	.	.	8F#\J
.	.	.	.	.	.	.	.	.	.	16a\	-li-	.	.	.	.	.
!	!	!	!	!LO:TX:t=P:problem=mixed beam	!	!	!	!	!	!	!	!	!	!	!	!
=83	=83	=83	=83	=83	=83	=83	=83	=83	=83	=83	=83	=83	=83	=83	=83	=83
8E\L	.	4g#/	.	8ee\L	.	.	.	.	.	8a\L	-o-	.	.	2ryy	2ryy	8E\L
8D\	.	.	.	16ff#\L	.	.	.	.	.	16f#\L	.	.	.	.	.	8D\
.	.	.	.	16gg#\JJ	.	.	.	.	.	16e\JJ	.	.	.	.	.	.
8C#\	X 6	8r	.	[4aa\	.	.	.	.	.	8a\	-rum	.	.	.	.	8C#\
8D\J	.	8ff#\	.	.	.	.	.	.	.	8b\	lae-	.	.	.	.	8D\J
=84	=84	=84	=84	=84	=84	=84	=84	=84	=84	=84	=84	=84	=84	=84	=84	=84
!LO:TX:t=P:problem=mixed beam	!	!	!	!	!	!	!	!	!	!	!	!	!	!	!	!LO:TX:t=P:problem=mixed beam
8E\L	X 4	4.ee\	.	4aa\]	.	.	.	.	.	2bT\	-tan-	0r	.	2ryy	2ryy	8E\L
8D\	.	.	.	.	.	.	.	.	.	.	.	.	.	.	.	8D\
8E\	X 3	.	.	4gg#t\	.	.	.	.	.	.	.	.	.	.	.	8E\
8EE/J	X 7	8dd\	.	.	.	.	.	.	.	.	.	.	.	.	.	8EE/J
=85	=85	=85	=85	=85	=85	=85	=85	=85	=85	=85	=85	=85	=85	=85	=85	=85
4AA/	.	8cc#\L	.	8r	.	1r	.	1r	.	4a\	-tem.	.	.	2ryy	2ryy	4AA/
!	!	!	!LO:DY:b:t=for	!	!LO:DY:b:t=for	!	!	!	!	!	!	!	!	!	!	!
.	.	8a\|	f	8a/L|	f	.	.	.	.	.	.	.	.	.	.	.
4r	.	8cc#\|	.	8cc#/|	.	.	.	.	.	4r	.	.	.	.	.	4r
.	.	8ee\J|	.	8ee/J|	.	.	.	.	.	.	.	.	.	.	.	.
=86	=86	=86	=86	=86	=86	=86	=86	=86	=86	=86	=86	=86	=86	=86	=86	=86
!	!	!LO:TX:t=P:problem=mixed beam	!	!LO:TX:t=P:problem=mixed beam	!	!	!	!	!	!LO:TX:a:t=2.	!	!	!	!	!	!
8r	.	8aa\L	.	8aa\L	.	.	.	.	.	1r	.	.	.	2ryy	2ryy	8r
8AA/L|	.	8A/|	.	8A/|	.	.	.	.	.	.	.	.	.	.	.	8AA/L|
8C#/|	.	8c#/|	.	8c#/|	.	.	.	.	.	.	.	.	.	.	.	8C#/|
8E/J|	.	8e/J|	.	8e/J|	.	.	.	.	.	.	.	.	.	.	.	8E/J|
=87	=87	=87	=87	=87	=87	=87	=87	=87	=87	=87	=87	=87	=87	=87	=87	=87
4A\	.	4a 4e 4A/	.	4a 4e 4A/	.	2r	.	2r	.	.	.	.	.	2ryy	2ryy	4A\
4r	.	4r	.	4r	.	.	.	.	.	.	.	.	.	.	.	4r
!	!	!	!	!	!	!	!	!	!	!	!	!LO:LB:g=original	!	!	!	!
!LO:LB:g=original	!	!LO:LB:g=original	!	!	!	!LO:LB:g=original	!	!	!	!	!	!	!	!	!	!
=88||	=88||	=88||	=88||	=88||	=88||	=88||	=88||	=88||	=88||	=88||	=88||	=88||	=88||	=88||	=88||	=88||
*M3/4	*	*M3/4	*	*M3/4	*	*M3/4	*	*M3/4	*	*M3/4	*	*M3/4	*	*M3/4	*M3/4	*M3/4
!LO:TX:b:i:t=Gloria.:rj	!	!	!	!	!	!	!	!	!	!	!	!	!	!	!	!LO:TX:b:i:t=Tutti&colon;
!LO:TX:b:t=tutti.	!	!LO:TX:a:t=1.	!	!	!	!	!	!	!	!	!	!	!	!	!	!LO:TX:a:i:t=Grave
!LO:TX:a:t=Grave.	!	!LO:TX:b:t=Grave:rj	!	!LO:TX:b:t=Grave:rj	!	!LO:TX:b:t=Grave.	!	!LO:TX:b:t=Grave	!	!LO:TX:b:t=Grave.	!	!LO:TX:b:t=Grave	!	!	!	!
!	!	!	!	!	!	!	!	!	!	!	!	!	!	!	!	!LO:TX:b:i:t=Gloria:rj
2D/	.	2.r	.	8r	.	4.D/	Glo-	4.A/	Glo-	4.f#\	Glo-	4.dd\	Glo-	2.ryy	2.ryy	2D/
.	.	.	.	8d/L|	.	.	.	.	.	.	.	.	.	.	.	.
.	.	.	.	8f#/|	.	.	.	.	.	.	.	.	.	.	.	.
.	.	.	.	8a/|	.	8D/	-ri-	8A/	-ri-	8f#\	-ri-	8dd\	-ri-	.	.	.
4D/	.	.	.	8dd/|	.	4D/	-a	4A/	-a	4f#\	-a	4dd\	-a	.	.	4D/
.	.	.	.	8ff#/J|	.	.	.	.	.	.	.	.	.	.	.	.
!	!	!	!	!	!	!	!	!	!	!	!	!	!	!	!	!LO:LB:g=original
=89	=89	=89	=89	=89	=89	=89	=89	=89	=89	=89	=89	=89	=89	=89	=89	=89
.	.	.	.	8qqff#/	.	.	.	.	.	.	.	.	.	.	.	.
*	*	*	*	*	*	*2\right	*	*	*	*	*	*	*	*	*	*
4F#\	.	8r	.	4ee\	.	2A\	Pa-	2A/	Pa-	2e\	Pa-	2cc#\	Pa-	2.ryy	2.ryy	4F#\
.	.	8c#/L|	.	.	.	.	.	.	.	.	.	.	.	.	.	.
4c#\	X 6	8e/|	.	4r	.	.	.	.	.	.	.	.	.	.	.	4c#\
.	.	8a/|	.	.	.	.	.	.	.	.	.	.	.	.	.	.
4F#\	.	8cc#/|	.	4r	.	4A\	-tri	4A/	-tri,	4e\	-tri,	4cc#\	-tri,	.	.	4F#\
.	.	8ee/J|	.	.	.	.	.	.	.	.	.	.	.	.	.	.
=90	=90	=90	=90	=90	=90	=90	=90	=90	=90	=90	=90	=90	=90	=90	=90	=90
.	.	8qqdd/	.	.	.	.	.	.	.	.	.	.	.	.	.	.
2AA/	.	4cc#\	.	8r	.	4.AA/	glo-	4.e\	glo-	4.a\	glo-	4.cc#\	glo-	2.ryy	2.ryy	2AA/
.	.	.	.	8a\L|	.	.	.	.	.	.	.	.	.	.	.	.
.	.	4r	.	8cc#\|	.	.	.	.	.	.	.	.	.	.	.	.
.	.	.	.	8ee\|	.	8AA/	-ri-	8e\	-ri-	8a\	-ri-	8cc#\	-ri-	.	.	.
4AA/	.	4r	.	8aa\|	.	4AA/	-a	4e\	-a	4a\	-a	4cc#\	-a	.	.	4AA/
.	.	.	.	8ccc#\J|	.	.	.	.	.	.	.	.	.	.	.	.
=91	=91	=91	=91	=91	=91	=91	=91	=91	=91	=91	=91	=91	=91	=91	=91	=91
.	.	.	.	8qqccc#/	.	.	.	.	.	.	.	.	.	.	.	.
4E\	.	8r	.	4bb\	.	4.E\	Fi-	4.e\	Fi-	4.g#\	Fi-	4.b\	Fi-	2.ryy	2.ryy	4E\
.	.	8g#/L|	.	.	.	.	.	.	.	.	.	.	.	.	.	.
4G#\	X 6	8b/|	.	4r	.	.	.	.	.	.	.	.	.	.	.	4G#\
.	.	8ee/|	.	.	.	8E\	-li-	8e\	-li-	8g#\	-li-	8b\	-li-	.	.	.
4E\	.	8gg#/|	.	4r	.	4E\	-o	4e\	-o	4g#\	-o	4b\	-o	.	.	4E\
.	.	8bb/J|	.	.	.	.	.	.	.	.	.	.	.	.	.	.
!	!	!	!	!	!	!	!	!LO:LB:g=original	!	!	!	!	!	!	!	!
=92	=92	=92	=92	=92	=92	=92	=92	=92	=92	=92	=92	=92	=92	=92	=92	=92
4r	.	4aa\	.	4r	.	4r	.	4r	.	4r	.	4r	.	2.ryy	2.ryy	4r
4F#\	.	4ff#\	.	4aa\	.	4F#\	et	4c#\	et	4a\	et	4ff#\	et	.	.	4F#\
4E\	X 2	4ff#\	.	4aa\	.	4E\	Spi-	4c#\	Spi-	4a\	Spi-	4ff#\	Spi-	.	.	4E\
=93	=93	=93	=93	=93	=93	=93	=93	=93	=93	=93	=93	=93	=93	=93	=93	=93
.	.	.	.	8qqbb/	.	.	.	.	.	.	.	.	.	.	.	.
4D#X/	6 5	2ff#\	.	2aa\	.	4.D#X/	-ri-	4.B\	-ri-	4.a\	-ri-	4.ff#\	-ri-	2.ryy	2.ryy	4D#X/
4BB/	.	.	.	.	.	.	.	.	.	.	.	.	.	.	.	4BB/
.	.	.	.	.	.	8D#/	-tu-	8B\	-tu-	8g#\	-tu-	8ee\	-tu-	.	.	.
4E\	.	[4ee\	.	4gg#\	.	4E\	-i	4B\	-i	4g#\	-i	4ee\	-i	.	.	4E\
!	!	!	!	!	!	!	!	!	!	!LO:LB:g=original	!	!	!	!	!	!
=94	=94	=94	=94	=94	=94	=94	=94	=94	=94	=94	=94	=94	=94	=94	=94	=94
*2\right	*	*	*	*	*	*	*	*	*	*	*	*	*	*	*	*
2F#\	X 7	4ee\]	.	2aa\	.	2.F#\	San-	2.A/	San-	2.a\	San-	4ee\	San-	2.ryy	2.ryy	2F#\
.	X 6/	2dd#Xt\	.	.	.	.	.	.	.	.	.	2dd#X\	.	.	.	.
!	!	!	!	!	!	!LO:TX:b:i:t=Volti	!	!	!	!	!	!	!	!	!	!
4F#\	.	.	.	4aa\	.	.	.	.	.	.	.	.	.	.	.	4F#\
!	!	!	!	!	!	!LO:PB:g=original	!	!	!	!	!	!	!	!	!	!
=95	=95	=95	=95	=95	=95	=95	=95	=95	=95	=95	=95	=95	=95	=95	=95	=95
4E\	.	4ee\	.	4gg#\	.	4E\	-cto	4B\	-cto:	4g#\	-cto	4ee\	-cto	2.ryy	2.ryy	4E\
8E\L	.	4r	.	4r	.	(8E\L	si-	8G#/L	Si-	4g#\	si-	4ee\	si-	.	.	8E\L
8F#\	.	.	.	.	.	8F#\J)	.	8A/J	.	.	.	.	.	.	.	8F#\
8G#\	.	4r	.	4r	.	(8G#\L	-cut	8B\L	-cut	4g#\	-cut	4ee\	-cut	.	.	8G#\
8A\J	.	.	.	.	.	8A\J)	.	8c#\J	.	.	.	.	.	.	.	8A\J
!	!	!	!	!LO:LB:g=original	!	!	!	!	!	!	!	!	!	!	!	!
=96	=96	=96	=96	=96	=96	=96	=96	=96	=96	=96	=96	=96	=96	=96	=96	=96
!	!	!LO:TX:a:t=10.	!	!LO:TX:a:t=10.	!	!	!	!	!	!	!	!	!	!	!	!
2B\	6 4	0.r	.	0.r	.	2B\	e-	2B\	e-	2g#\	e-	2ee\	e-	2.ryy	2.ryy	2B\
.	5 #	.	.	.	.	.	.	.	.	.	.	.	.	.	.	.
4BB/	.	.	.	.	.	4BB/	-rat	4B\	-rat	4f#\	-rat	4dd#X\	-rat	.	.	4BB/
=97	=97	=97	=97	=97	=97	=97	=97	=97	=97	=97	=97	=97	=97	=97	=97	=97
4r	.	.	.	.	.	4r	.	4r	.	4r	.	4r	.	2.ryy	2.ryy	4r
8Dn\L	X 5	.	.	.	.	(8Dn\L	in	8F#/L	in	4f#\	in	4ddn\	in	.	.	8Dn\L
8E\	.	.	.	.	.	8E\J)	.	8G#/J	.	.	.	.	.	.	.	8E\
8F#\	.	.	.	.	.	(8F#\L	prin-	8A/L	prin-	4f#\	prin-	4dd\	prin-	.	.	8F#\
8G#\J	.	.	.	.	.	8G#\J)	.	8B/J	.	.	.	.	.	.	.	8G#\J
=98	=98	=98	=98	=98	=98	=98	=98	=98	=98	=98	=98	=98	=98	=98	=98	=98
2A\	6 4	.	.	.	.	4.A\	-ci-	4.A/	-ci-	4.f#\	-ci-	4.dd\	-ci-	2.ryy	2.ryy	2A\
.	.	.	.	.	.	8AA/	-pi-	8A/	-pi-	8e\	-pi-	8cc#\	-pi-	.	.	.
4AA/	5 3	.	.	.	.	4AA/	-o	4A/	-o	4e\	-o	4cc#\	-o	.	.	4AA/
!	!	!	!	!	!	!	!	!	!	!	!	!LO:LB:g=original	!	!	!	!
=99	=99	=99	=99	=99	=99	=99	=99	=99	=99	=99	=99	=99	=99	=99	=99	=99
*	*	*	*	*	*	*	*	*	*	*	*	*	*	*	*	*2\right
[2.E\	X 7	.	.	.	.	2E\	nunc	(4B\	nunc	2e\	nunc	4dd\	et	2.ryy	2.ryy	[2.E\
.	6 4	.	.	.	.	.	.	4G#/)	.	.	.	4bT\	nunc	.	.	.
.	.	.	.	.	.	4E\	-et	4A/	-et	4e\	-et	4cc#\	et	.	.	.
=100	=100	=100	=100	=100	=100	=100	=100	=100	=100	=100	=100	=100	=100	=100	=100	=100
2.E\]	7 3	0.r	.	0.r	.	2E\	sem-	(4B\	sem-	2e\	sem-	(4dd\	sem-	2.ryy	2.ryy	2.E\]
.	6 4	.	.	.	.	.	.	4G#/)	.	.	.	4b\)	.	.	.	.
.	.	.	.	.	.	4E\	-per	4A/	-per	4e\	-per	4cc#\	-per	.	.	.
!	!	!	!	!	!	!	!	!	!	!	!	!	!	!	!	!LO:LB:g=original
=101	=101	=101	=101	=101	=101	=101	=101	=101	=101	=101	=101	=101	=101	=101	=101	=101
*	*reverse	*	*	*	*	*	*	*	*	*	*	*	*	*	*	*
2D#X/	7- 5	.	.	.	.	2D#X/	et	2A/	et	2f#\	et	2ccn\	et	2.ryy	2.ryy	2D#X/
4D#/	.	.	.	.	.	4D#/	in	4A/	in	4f#\	in	4cc\	in	.	.	4D#/
!LO:LB:g=original	!	!	!	!	!	!	!	!LO:LB:g=original	!	!	!	!	!	!	!	!
=102	=102	=102	=102	=102	=102	=102	=102	=102	=102	=102	=102	=102	=102	=102	=102	=102
2E\	.	.	.	.	.	4.E\	sae-	4.e\	sae-	4.g#\	sae-	4.b\	sae-	2.ryy	2.ryy	2E\
.	.	.	.	.	.	8E\	-cu-	8e\	-cu-	8g#\	-cu-	8b\	-cu-	.	.	.
4EE/	.	.	.	.	.	4E\	-la	4e\	-la	4g#\	-la	4b\	-la	.	.	4EE/
=103	=103	=103	=103	=103	=103	=103	=103	=103	=103	=103	=103	=103	=103	=103	=103	=103
4r	.	.	.	.	.	4r	.	4r	.	4r	.	4r	.	2.ryy	2.ryy	4r
4E\	.	.	.	.	.	4E\	sae-	4e\	sae-	4g#\	sae-	4b\	sae-	.	.	4E\
4Dn/	X 2	.	.	.	.	4Dn/	-cu-	4e\	-cu-	4g#\	-cu-	4b\	-cu-	.	.	4Dn/
!	!	!	!	!	!	!LO:LB:g=original	!	!	!	!	!	!	!	!	!	!
=104	=104	=104	=104	=104	=104	=104	=104	=104	=104	=104	=104	=104	=104	=104	=104	=104
4C#X/	X 6	1.r	.	1.r	.	4C#/	-lo-	(4e\	-lo-	2a\	-lo-	(4cc#X\	-lo-	2.ryy	2.ryy	4C#X/
4BB/	.	.	.	.	.	4BB/	.	4d\)	.	.	.	4dd\)	.	.	.	4BB/
4AA/	.	.	.	.	.	4AA/	-rum	4c#\	-rum	4a\	-rum	4ee\	-rum	.	.	4AA/
=105	=105	=105	=105	=105	=105	=105	=105	=105	=105	=105	=105	=105	=105	=105	=105	=105
4D\	6 5	.	.	.	.	4D/	a-	2B\	a-	4a\	a-	(8ff#\L	a-	2.ryy	2.ryy	4D\
.	.	.	.	.	.	.	.	.	.	.	.	8dd\J)	.	.	.	.
.	.	.	.	.	.	.	.	.	.	.	.	8qqcc#/	.	.	.	.
4E\	.	.	.	.	.	2E\	.	.	.	2g#t\	.	2bT\	.	.	.	4E\
4EE/	.	.	.	.	.	.	.	4e\	.	.	.	.	.	.	.	4EE/
!	!	!	!	!	!	!	!	!	!	!LO:LB:g=original	!	!	!	!	!	!
=106	=106	=106	=106	=106	=106	=106	=106	=106	=106	=106	=106	=106	=106	=106	=106	=106
*M2/4	*	*M2/4	*	*M2/4	*	*M2/4	*	*M2/4	*	*M2/4	*	*M2/4	*	*M2/4	*M2/4	*M2/4
!	!	!LO:TX:a:t=1.	!	!	!	!	!	!	!	!	!	!	!	!	!	!
!LO:TX:b:t=Allo.:rj	!	!LO:TX:b:t=allo.:rj	!	!LO:TX:b:t=allo.:rj	!	!LO:TX:b:i:t=allo.:rj	!	!	!	!	!	!	!	!	!	!
!	!	!	!	!	!	!	!	!LO:TX:b:i:t=allo.	!	!LO:TX:b:i:t=allo.	!	!LO:TX:a:i:t=allo.	!	!	!	!
8AA/	.	2r	.	8r	.	8AA/	-men	8c#\	-men	8a\	-men.	8a\	men	2ryy	2ryy	8AA/
8r	.	.	.	8a\L	.	8r	.	8r	.	8r	.	8a\	a-	.	.	8r
4r	.	.	.	8cc#\	.	4r	.	4r	.	4r	.	8cc#\L	.	.	.	4r
.	.	.	.	8dd#X\J	.	.	.	.	.	.	.	8dd#X\J	.	.	.	.
=107	=107	=107	=107	=107	=107	=107	=107	=107	=107	=107	=107	=107	=107	=107	=107	=107
!LO:TX:a:t=2	!	!	!	!	!	!LO:TX:a:t=3.	!	!LO:TX:a:t=2.	!	!	!	!	!	!	!	!
1r	.	8r	.	8ee\	.	1r	.	1r	.	8r	.	8ee\	.	2ryy	2ryy	1r
.	.	8e/L|	.	4b\	.	.	.	.	.	8e\	a-	4b\	.	.	.	.
.	.	8g#/|	.	.	.	.	.	.	.	8g#\L	.	.	.	.	.	.
.	.	8a#X/J|	.	8cc#\	.	.	.	.	.	8a#X\J	.	8cc#\	.	.	.	.
!	!	!LO:LB:g=original	!	!	!	!	!	!	!	!	!	!	!	!	!	!
=108	=108	=108	=108	=108	=108	=108	=108	=108	=108	=108	=108	=108	=108	=108	=108	=108
.	.	8b/	.	8ddn\	.	.	.	.	.	8b\	.	8ddn\	.	2ryy	2ryy	.
.	.	4f#/	.	4a/	.	.	.	.	.	4f#\	.	4a\	.	.	.	.
.	.	8g#/	.	8b/	.	.	.	.	.	8g#\	.	8b\	.	.	.	.
!	!	!	!	!	!	!	!	!	!	!	!	!LO:LB:g=original	!	!	!	!
=109	=109	=109	=109	=109	=109	=109	=109	=109	=109	=109	=109	=109	=109	=109	=109	=109
*clefC4	*	*	*	*	*	*	*	*	*	*	*	*	*	*	*	*clefC4
!	!	!	!	!	!	!	!	!LO:TX:a:i:t=Solo:color=grey	!	!	!	!	!	!	!	!
8r	.	4an/	.	4cc#\	.	2r	.	8r	.	2an\	.	2cc#\	.	2ryy	2ryy	8r
8A\L	.	.	.	.	.	.	.	8A/	a-	.	.	.	.	.	.	8A\L
8c#\	X 6	4cc#\	.	4aa\	.	.	.	8c#\L	.	.	.	.	.	.	.	8c#\
8d#X\J	.	.	.	.	.	.	.	8d#X\J	.	.	.	.	.	.	.	8d#X\J
=110	=110	=110	=110	=110	=110	=110	=110	=110	=110	=110	=110	=110	=110	=110	=110	=110
8e\	.	4b\	.	2gg#\	.	8r	.	8e\	.	4g#\	-men	4b\	-men	2ryy	2ryy	8e\
*clefF4	*	*	*	*	*	*	*	*	*	*	*	*	*	*	*	*clefF4
8E\L	.	.	.	.	.	8E\	a-	4B\	.	.	.	.	.	.	.	8E\L
8G#\	X 6	4ee\	.	.	.	8G#\L	.	.	.	4g#\	a-	4ee\	a-	.	.	8G#\
8A#X\J	.	.	.	.	.	8A#X\J	.	8c#\	.	.	.	.	.	.	.	8A#X\J
!	!	!	!	!	!	!	!	!	!	!	!	!	!	!	!	!LO:LB:g=original
=111	=111	=111	=111	=111	=111	=111	=111	=111	=111	=111	=111	=111	=111	=111	=111	=111
.	.	8qqdd/	.	.	.	.	.	.	.	.	.	8qqee/	.	.	.	.
8B\	.	2dd\	.	2ff#\	.	8B\	.	8dn\	.	2f#\	.	2dd\	.	2ryy	2ryy	8B\
4F#\	X 6	.	.	.	.	4F#\	.	4A\	.	.	.	.	.	.	.	4F#\
8G#\	.	.	.	.	.	8G#\	.	8B\	.	.	.	.	.	.	.	8G#\
=112	=112	=112	=112	=112	=112	=112	=112	=112	=112	=112	=112	=112	=112	=112	=112	=112
!LO:TX:t=P:problem=mixed beam	!	!	!	!	!	!	!	!	!	!	!	!	!	!	!	!LO:TX:t=P:problem=mixed beam
8An\L	.	4cc#\	.	4ee\	.	8An\	men	4c#\	-men	4e\	.	2cc#\	.	2ryy	2ryy	8An\L
8AA/	.	.	.	.	.	8AA/	a-	.	.	.	.	.	.	.	.	8AA/
*	*	*	*	*	*	*	*	*	*ij	*	*	*	*	*	*	*
8C#/	X 6	4cc#\	.	4aa\	.	8C#/L	.	8e\L	a-	4a\	.	.	.	.	.	8C#/
8D#X/J	.	.	.	.	.	8D#X/J	.	8f#\J	.	.	.	.	.	.	.	8D#X/J
!LO:LB:g=original	!	!	!	!	!	!	!	!	!	!	!	!	!	!	!	!
=113	=113	=113	=113	=113	=113	=113	=113	=113	=113	=113	=113	=113	=113	=113	=113	=113
4E\	.	8b\	.	8gg#\	.	4E\	-men	4B\	-men	8g#\	-men	8b\	men	2ryy	2ryy	4E\
*	*	*	*	*	*	*	*	*	*Xij	*	*	*	*	*	*	*
.	.	4dd\	.	4bb\	.	.	.	.	.	4b\	a-	4dd\	a-	.	.	.
4r	.	.	.	.	.	4r	.	4r	.	.	.	.	.	.	.	4r
.	.	16cc#\LL	.	16aa\LL	.	.	.	.	.	16a\LL	.	16cc#\LL	.	.	.	.
.	.	16b\JJ	.	16gg#\JJ	.	.	.	.	.	16g#\JJ	.	16b\JJ	.	.	.	.
!	!	!	!	!	!	!	!	!LO:LB:g=original	!	!	!	!	!	!	!	!
=114	=114	=114	=114	=114	=114	=114	=114	=114	=114	=114	=114	=114	=114	=114	=114	=114
8r	.	2cc#\	.	2aa\	.	8r	.	8r	.	2a\	.	2cc#\	.	2ryy	2ryy	8r
8GG#/L	.	.	.	.	.	8AA/	a-	4e\	a-	.	.	.	.	.	.	8GG#/L
8C#/	X 6	.	.	.	.	8C#/L	.	.	.	.	.	.	.	.	.	8C#/
8D#X/J	.	.	.	.	.	8D#X/J	.	8f#\	.	.	.	.	.	.	.	8D#X/J
!	!	!	!	!	!	!LO:LB:g=original	!	!	!	!	!	!	!	!	!	!
=115	=115	=115	=115	=115	=115	=115	=115	=115	=115	=115	=115	=115	=115	=115	=115	=115
4E\	.	8b\	.	8gg#\	.	4E\	-men	4B\	-men	8g#\	.	8b\	-men	2ryy	2ryy	4E\
.	.	4dd\	.	4bb\	.	.	.	.	.	4b\	.	4dd\	a-	.	.	.
4r	.	.	.	.	.	4r	.	4r	.	.	.	.	.	.	.	4r
.	.	16cc#\LL	.	16aa\LL	.	.	.	.	.	16a\LL	.	16cc#\LL	.	.	.	.
.	.	16b\JJ	.	16gg#\JJ	.	.	.	.	.	16g#\JJ	.	16b\JJ	.	.	.	.
=116	=116	=116	=116	=116	=116	=116	=116	=116	=116	=116	=116	=116	=116	=116	=116	=116
.	.	8qqdd/	.	8qqgg#/	.	.	.	.	.	.	.	.	.	.	.	.
8r	.	2cc#\	.	2aa\	.	8r	.	8r	.	2a\	.	2cc#\	.	2ryy	2ryy	8r
8AA/L	.	.	.	.	.	8AA/	a-	4e\	a-	.	.	.	.	.	.	8AA/L
8C#/	X 6	.	.	.	.	8C#/L	.	.	.	.	.	.	.	.	.	8C#/
8D#X/J	.	.	.	.	.	8D#X/J	.	8f#\	.	.	.	.	.	.	.	8D#X/J
=117	=117	=117	=117	=117	=117	=117	=117	=117	=117	=117	=117	=117	=117	=117	=117	=117
2E\	5 3	4b\	.	8gg#\L	.	[2E\	.	4B\	-men	4g#\	-men	4b\	-men	2ryy	2ryy	2E\
.	6 4	.	.	8ee\J	.	.	.	.	.	.	.	.	.	.	.	.
.	.	8cc#\L	.	[4aa\	.	.	.	4e\	a-	[4a\	a-	4cc#\	a-	.	.	.
.	.	16b\L	.	.	.	.	.	.	.	.	.	.	.	.	.	.
.	.	16a\JJ	.	.	.	.	.	.	.	.	.	.	.	.	.	.
=118	=118	=118	=118	=118	=118	=118	=118	=118	=118	=118	=118	=118	=118	=118	=118	=118
2EE/	5 4	2bT/	.	8aa\L]	.	2E\]	.	2e\	.	4a\]	.	2bT\	.	2ryy	2ryy	2EE/
.	X 3	.	.	16gg#\L	.	.	.	.	.	.	.	.	.	.	.	.
.	.	.	.	16ff#\JJ	.	.	.	.	.	.	.	.	.	.	.	.
.	.	.	.	4gg#t\	.	.	.	.	.	4g#\	.	.	.	.	.	.
=119	=119	=119	=119	=119	=119	=119	=119	=119	=119	=119	=119	=119	=119	=119	=119	=119
4AA/	.	4a/	.	4aa\	.	4AA/	men.	4e\	-men.	4a\	-men.	4a\	-men.	2ryy	2ryy	4AA/
4r	.	4r	.	4r	.	4r	.	4r	.	4r	.	4r	.	.	.	4r
==	==	==	==	==	==	==	==	==	==	==	==	==	==	==	==	==
*-	*-	*-	*-	*-	*-	*-	*-	*-	*-	*-	*-	*-	*-	*-	*-	*-
!!!system-decoration: [(s1)][(g1)][(g2)][(g3)][(s10)]
!!!RDF**kern: | = vertical stroke
!!!RDF**kern: > = above
!!!RDF**kern: < = below
!!!AIN: 1 alto 1 bass 2 clrno 1 fagot 1 organ 1 soprn 1 tenor 2 violn
!!!ENC: Marta Opryszak
!!!END: 2022-04-04
!!!EED: Antoni Szymański
!!!EST: 2022-04-10
